public/images/logos/the-kooples.svg

<svg width="870" height="277" viewBox="0 0 870 277" fill="none" xmlns="http://www.w3.org/2000/svg">
<path d="M22.9981 35.5547V164.369C22.9981 165.595 23.9802 166.658 25.2897 166.658H56.1449C57.3725 166.658 58.4365 165.677 58.4365 164.369V35.5547C58.4365 34.3287 59.4186 33.2662 60.7281 33.2662H79.2248C80.4525 33.2662 81.5165 32.2853 81.5165 30.9776V4.08675C81.5165 2.86073 80.5343 1.79817 79.2248 1.79817H2.29163C1.06397 1.79817 0 2.77899 0 4.08675V30.9776C0 32.2036 0.982126 33.2662 2.29163 33.2662H20.7883C22.016 33.2662 23.08 34.247 23.08 35.5547" fill="black"/>
<path d="M88.9643 166.658H120.065C121.293 166.658 122.357 165.677 122.357 164.369V99.5533C122.357 98.3272 123.339 97.2647 124.648 97.2647H137.17C138.398 97.2647 139.462 98.2455 139.462 99.5533V164.369C139.462 165.595 140.444 166.658 141.754 166.658H172.609C173.836 166.658 174.9 165.677 174.9 164.369V4.08675C174.9 2.86073 173.918 1.79817 172.609 1.79817H141.754C140.526 1.79817 139.462 2.77899 139.462 4.08675V63.5898C139.462 64.8159 138.48 65.8784 137.17 65.8784H124.648C123.421 65.8784 122.357 64.8976 122.357 63.5898V4.08675C122.357 2.86073 121.374 1.79817 120.065 1.79817H88.9643C87.7366 1.79817 86.6726 2.77899 86.6726 4.08675V164.369C86.6726 165.595 87.6548 166.658 88.9643 166.658Z" fill="black"/>
<path d="M185.458 166.658H247.087C248.314 166.658 249.378 165.677 249.378 164.369V137.478C249.378 136.252 248.396 135.19 247.087 135.19H220.16C218.932 135.19 217.868 134.209 217.868 132.901V99.5533C217.868 98.3272 218.85 97.2647 220.16 97.2647H243.24C244.468 97.2647 245.532 96.2839 245.532 94.9761V68.0853C245.532 66.8592 244.549 65.7967 243.24 65.7967H220.16C218.932 65.7967 217.868 64.8159 217.868 63.5081V35.3913C217.868 34.1652 218.85 33.1027 220.16 33.1027H247.087C248.314 33.1027 249.378 32.1219 249.378 30.8141V4.08675C249.378 2.86073 248.396 1.79817 247.087 1.79817H185.458C184.23 1.79817 183.167 2.77899 183.167 4.08675V164.369C183.167 165.595 184.149 166.658 185.458 166.658Z" fill="black"/>
<path d="M364.696 80.8359C364.696 80.509 364.696 80.1003 364.696 79.7734L383.438 4.57716C383.766 3.18767 382.702 1.79817 381.229 1.79817H348.9C347.836 1.79817 346.936 2.53379 346.691 3.51461L331.959 66.6958H331.468V4.08675C331.468 2.86073 330.485 1.79817 329.176 1.79817H298.321C297.093 1.79817 296.029 2.77899 296.029 4.08675V164.369C296.029 165.595 297.011 166.658 298.321 166.658H329.176C330.404 166.658 331.468 165.677 331.468 164.369V97.3464H331.959L347.182 164.941C347.427 166.004 348.327 166.739 349.391 166.739H381.556C383.029 166.739 384.093 165.432 383.766 163.96L364.778 80.9177L364.696 80.8359Z" fill="black"/>
<path d="M513.734 129.468C513.734 135.19 511.442 138.868 506.613 138.868C501.785 138.868 499.247 135.19 499.247 129.468V38.9876C499.247 33.2662 501.785 29.5881 506.613 29.5881C511.442 29.5881 513.734 33.2662 513.734 38.9876V129.468ZM431.481 129.468C431.481 135.19 429.189 138.868 424.36 138.868C419.532 138.868 416.994 135.19 416.994 129.468V38.9876C416.994 33.2662 419.532 29.5881 424.36 29.5881C429.189 29.5881 431.481 33.2662 431.481 38.9876V129.468ZM506.613 0C485.007 0 469.947 10.4621 465.446 27.2178C460.945 10.4621 445.885 0 424.278 0C402.672 0 381.72 15.121 381.72 38.0885V130.367C381.72 153.335 398.252 168.456 424.278 168.456C450.305 168.456 460.945 157.994 465.446 141.238C469.947 157.994 485.007 168.456 506.613 168.456C528.22 168.456 549.172 153.335 549.172 130.367V38.0885C549.172 15.121 532.64 0 506.613 0Z" fill="black"/>
<path d="M606.135 60.8109C606.135 66.5323 603.598 69.8017 599.015 69.8017H593.941C592.713 69.8017 591.649 68.8209 591.649 67.5131V34.4104C591.649 33.1844 592.631 32.1219 593.941 32.1219H599.015C603.598 32.1219 606.135 35.5547 606.135 41.1127V60.8109ZM602.944 1.79817H558.748C557.52 1.79817 556.456 2.77899 556.456 4.08675V164.369C556.456 165.595 557.438 166.658 558.748 166.658H589.357C590.585 166.658 591.649 165.677 591.649 164.369V102.577C591.649 101.351 592.631 100.289 593.941 100.289H602.944C628.888 100.289 641.574 86.7209 641.574 63.5898V38.3337C641.574 15.3662 628.97 1.87991 602.944 1.87991" fill="black"/>
<path d="M710.077 135.19H684.296C683.069 135.19 682.005 134.209 682.005 132.901V4.08675C682.005 2.86073 681.023 1.79817 679.713 1.79817H649.513C648.285 1.79817 647.221 2.77899 647.221 4.08675V164.369C647.221 165.595 648.203 166.658 649.513 166.658H709.995C711.223 166.658 712.287 165.677 712.287 164.369V137.478C712.287 136.252 711.305 135.19 709.995 135.19" fill="black"/>
<path d="M781.527 1.79817H719.898C718.671 1.79817 717.607 2.77899 717.607 4.08675V164.369C717.607 165.595 718.589 166.658 719.898 166.658H781.527C782.755 166.658 783.818 165.677 783.818 164.369V137.478C783.818 136.252 782.836 135.19 781.527 135.19H754.6C753.373 135.19 752.309 134.209 752.309 132.901V99.5533C752.309 98.3272 753.291 97.2647 754.6 97.2647H777.68C778.908 97.2647 779.972 96.2839 779.972 94.9761V68.0853C779.972 66.8592 778.99 65.7967 777.68 65.7967H754.6C753.373 65.7967 752.309 64.8159 752.309 63.5081V35.3913C752.309 34.1652 753.291 33.1027 754.6 33.1027H781.527C782.755 33.1027 783.818 32.1219 783.818 30.8141V4.08675C783.818 2.86073 782.836 1.79817 781.527 1.79817Z" fill="black"/>
<path d="M854.122 79.2012L827.196 60.157C823.513 57.378 821.876 54.6807 821.876 48.8775V38.9876C821.876 33.2662 823.922 29.5881 828.751 29.5881C833.58 29.5881 835.38 33.2662 835.38 38.9876V57.8684C835.38 59.0944 836.362 60.157 837.672 60.157H867.381C868.609 60.157 869.673 59.1762 869.673 57.8684V38.0885C869.673 14.8758 854.695 0 828.751 0C802.806 0 786.437 14.9575 786.437 38.0885V55.7433C786.437 70.2104 791.266 78.2204 802.315 85.5766L829.242 104.866C832.925 107.645 834.562 110.179 834.562 116.145V129.468C834.562 135.19 832.516 138.868 827.932 138.868C823.349 138.868 821.057 135.19 821.057 129.468V107.645C821.057 106.419 820.075 105.356 818.766 105.356H788.811C787.583 105.356 786.519 106.337 786.519 107.645V130.367C786.519 153.58 801.497 168.456 827.441 168.456C853.386 168.456 870 153.498 870 130.367V109.035C870 94.5674 865.171 86.5574 854.122 79.2012Z" fill="black"/>
<path d="M10.8034 257.302C10.9671 260.49 11.7037 263.023 13.0132 265.067C15.4685 268.745 19.7244 270.625 25.8627 270.625C32.0009 270.625 31.1007 270.216 33.3923 269.399C37.73 267.846 39.9398 264.985 39.9398 260.898C39.9398 256.811 39.0395 255.667 37.1571 254.359C35.2747 253.052 32.3283 251.989 28.318 251.008L20.952 249.292C16.1232 248.148 12.7676 246.922 10.7215 245.614C7.2841 243.243 5.56538 239.811 5.56538 235.152C5.56538 230.493 7.2841 225.997 10.6397 222.728C13.9953 219.54 18.8241 217.906 25.0442 217.906C31.2643 217.906 35.6021 219.295 39.6124 222.156C43.6228 225.017 45.587 229.512 45.587 235.724H38.4666C38.1392 232.7 37.3208 230.411 36.0931 228.858C33.8833 225.916 30.1185 224.444 24.7987 224.444C19.4788 224.444 17.4327 225.343 15.5503 227.305C13.6679 229.267 12.7676 231.392 12.7676 233.844C12.7676 236.296 13.9135 238.585 16.1232 239.892C17.5964 240.71 20.8702 241.69 26.0263 242.916L33.6378 244.715C37.3208 245.614 40.1853 246.758 42.1496 248.229C45.587 250.845 47.3057 254.686 47.3057 259.59C47.3057 264.495 45.096 270.216 40.6764 272.913C36.2568 275.611 31.1825 276.918 25.2897 276.918C19.397 276.918 13.1769 275.12 9.3302 271.605C5.48354 268.091 3.60113 263.269 3.68297 257.22H10.8034V257.302Z" fill="black"/>
<path d="M80.6162 219.377H121.293V226.243H87.9821V243.243H118.755V249.701H87.9821V268.663H121.865V275.365H80.6162V219.377Z" fill="black"/>
<path d="M193.561 223.464C197.407 227.223 199.617 231.474 200.026 236.214H192.579C191.76 232.618 190.123 229.757 187.668 227.632C185.213 225.507 181.775 224.444 177.274 224.444C172.772 224.444 167.452 226.406 164.097 230.248C160.741 234.089 159.104 240.056 159.104 248.066C159.104 256.076 160.578 259.917 163.606 264.004C166.634 268.091 171.135 270.134 177.11 270.134C183.085 270.134 186.768 268.009 189.714 263.677C191.269 261.389 192.415 258.446 193.151 254.768H200.599C199.945 260.653 197.817 265.639 194.134 269.562C189.714 274.384 183.821 276.755 176.292 276.755C168.762 276.755 164.424 274.793 160.087 270.87C154.357 265.639 151.411 257.629 151.411 246.676C151.411 235.724 153.539 231.637 157.877 226.324C162.542 220.603 169.008 217.742 177.274 217.742C185.54 217.742 189.714 219.622 193.643 223.382L193.561 223.464Z" fill="black"/>
<path d="M278.433 227.387C282.116 232.373 283.998 238.666 283.998 246.431C283.998 254.196 281.87 261.716 277.614 267.274C272.622 273.812 265.501 277 256.253 277C247.005 277 240.866 274.139 235.874 268.418C231.454 262.942 229.245 255.994 229.245 247.575C229.245 239.157 231.127 233.517 234.892 228.122C239.721 221.175 246.841 217.742 256.335 217.742C265.829 217.742 273.604 220.93 278.351 227.305L278.433 227.387ZM271.722 263.105C274.75 258.283 276.223 252.806 276.223 246.595C276.223 240.383 274.504 234.661 271.067 230.656C267.629 226.651 262.882 224.608 256.908 224.608C250.933 224.608 246.35 226.569 242.667 230.574C238.984 234.58 237.183 240.464 237.183 248.148C237.183 255.831 238.738 259.59 241.93 263.841C245.04 268.091 250.197 270.216 257.235 270.216C264.274 270.216 268.775 267.846 271.722 263.023V263.105Z" fill="black"/>
<path d="M314.935 219.377H323.856L351.847 264.658V219.377H359.131V275.365H350.619L322.219 230.166V275.365H314.935V219.377Z" fill="black"/>
<path d="M393.587 219.377H416.012C423.624 219.377 429.516 222.074 433.691 227.55C437.455 232.454 439.338 238.83 439.338 246.513C439.338 254.196 438.192 257.874 435.982 262.615C432.054 271.115 425.424 275.365 415.93 275.365H393.587V219.377ZM414.539 268.908C417.076 268.908 419.122 268.663 420.759 268.091C423.624 267.11 425.997 265.23 427.88 262.369C429.353 260.081 430.417 257.22 431.072 253.706C431.481 251.58 431.644 249.619 431.644 247.821C431.644 240.873 430.335 235.479 427.552 231.637C424.851 227.796 420.514 225.916 414.539 225.916H401.362V268.908H414.621H414.539Z" fill="black"/>
<path d="M522 224.199L518.644 228.776L515.289 224.199C508.578 215.045 494.582 215.78 488.935 225.589C485.58 231.31 486.234 238.503 490.572 243.652L518.726 277L546.881 243.652C551.136 238.585 551.791 231.392 548.517 225.589C542.788 215.699 528.875 214.963 522.164 224.199H522Z" fill="black"/>
<path d="M602.289 219.377H609.9V268.745H638.055V275.447H602.289V219.377Z" fill="black"/>
<path d="M713.842 227.387C717.525 232.373 719.407 238.666 719.407 246.431C719.407 254.196 717.279 261.716 713.024 267.274C708.031 273.812 700.911 277 691.662 277C682.414 277 676.276 274.139 671.283 268.418C666.864 262.942 664.654 255.994 664.654 247.575C664.654 239.157 666.536 233.517 670.301 228.122C675.13 221.175 682.25 217.742 691.744 217.742C701.238 217.742 709.013 220.93 713.76 227.305L713.842 227.387ZM707.131 263.105C710.159 258.283 711.632 252.806 711.632 246.595C711.632 240.383 709.913 234.661 706.476 230.656C703.039 226.651 698.292 224.608 692.317 224.608C686.342 224.608 681.759 226.569 678.076 230.574C674.393 234.58 672.593 240.464 672.593 248.148C672.593 255.831 674.148 259.59 677.34 263.841C680.45 268.091 685.606 270.216 692.644 270.216C699.683 270.216 704.184 267.846 707.131 263.023V263.105Z" fill="black"/>
<path d="M754.764 219.377L770.887 267.11L786.847 219.377H795.358L774.897 275.365H766.877L746.416 219.377H754.846H754.764Z" fill="black"/>
<path d="M825.068 219.377H865.744V226.243H832.434V243.243H863.207V249.701H832.434V268.663H866.317V275.365H825.068V219.377Z" fill="black"/>
</svg>

<svg xmlns="http://www.w3.org/2000/svg" width="870" height="277" fill="none"><path fill="#000" d="M22.998 35.555v128.814c0 1.226.982 2.289 2.292 2.289h30.855a2.286 2.286 0 0 0 2.291-2.289V35.555c0-1.226.983-2.289 2.292-2.289h18.497c1.228 0 2.291-.98 2.291-2.288V4.087a2.286 2.286 0 0 0-2.291-2.289H2.292C1.064 1.798 0 2.78 0 4.087v26.89c0 1.227.982 2.29 2.292 2.29h18.496c1.228 0 2.292.98 2.292 2.288M88.964 166.658h31.101a2.286 2.286 0 0 0 2.292-2.289V99.553c0-1.226.982-2.288 2.291-2.288h12.522c1.228 0 2.292.98 2.292 2.288v64.816c0 1.226.982 2.289 2.292 2.289h30.855a2.286 2.286 0 0 0 2.291-2.289V4.087a2.286 2.286 0 0 0-2.291-2.289h-30.855c-1.228 0-2.292.981-2.292 2.289V63.59a2.286 2.286 0 0 1-2.292 2.288h-12.522a2.286 2.286 0 0 1-2.291-2.288V4.087a2.287 2.287 0 0 0-2.292-2.289h-31.1c-1.228 0-2.292.981-2.292 2.289v160.282c0 1.226.982 2.289 2.291 2.289ZM185.458 166.658h61.629a2.286 2.286 0 0 0 2.291-2.289v-26.891a2.285 2.285 0 0 0-2.291-2.288H220.16a2.286 2.286 0 0 1-2.292-2.289V99.553c0-1.226.982-2.288 2.292-2.288h23.08c1.228 0 2.292-.981 2.292-2.289v-26.89a2.287 2.287 0 0 0-2.292-2.29h-23.08a2.286 2.286 0 0 1-2.292-2.288V35.391c0-1.226.982-2.288 2.292-2.288h26.927c1.227 0 2.291-.981 2.291-2.289V4.087a2.286 2.286 0 0 0-2.291-2.289h-61.629c-1.228 0-2.291.981-2.291 2.289v160.282c0 1.226.982 2.289 2.291 2.289ZM364.696 80.836v-1.063l18.742-75.196c.328-1.39-.736-2.779-2.209-2.779H348.9a2.282 2.282 0 0 0-2.209 1.717l-14.732 63.18h-.491V4.088a2.287 2.287 0 0 0-2.292-2.289h-30.855c-1.228 0-2.292.981-2.292 2.289v160.282c0 1.226.982 2.289 2.292 2.289h30.855a2.286 2.286 0 0 0 2.292-2.289V97.346h.491l15.223 67.595c.245 1.063 1.145 1.798 2.209 1.798h32.165c1.473 0 2.537-1.307 2.21-2.779l-18.988-83.042-.082-.082Z"/><path fill="#000" d="M513.734 129.468c0 5.722-2.292 9.4-7.121 9.4-4.828 0-7.366-3.678-7.366-9.4v-90.48c0-5.722 2.538-9.4 7.366-9.4 4.829 0 7.121 3.678 7.121 9.4v90.48Zm-82.253 0c0 5.722-2.292 9.4-7.121 9.4-4.828 0-7.366-3.678-7.366-9.4v-90.48c0-5.722 2.538-9.4 7.366-9.4 4.829 0 7.121 3.678 7.121 9.4v90.48ZM506.613 0c-21.606 0-36.666 10.462-41.167 27.218C460.945 10.462 445.885 0 424.278 0c-21.606 0-42.558 15.121-42.558 38.089v92.278c0 22.968 16.532 38.089 42.558 38.089 26.027 0 36.667-10.462 41.168-27.218 4.501 16.756 19.561 27.218 41.167 27.218 21.607 0 42.559-15.121 42.559-38.089V38.089C549.172 15.12 532.64 0 506.613 0ZM606.135 60.81c0 5.722-2.537 8.992-7.12 8.992h-5.074a2.286 2.286 0 0 1-2.292-2.289V34.41c0-1.226.982-2.288 2.292-2.288h5.074c4.583 0 7.12 3.433 7.12 8.99v19.699Zm-3.191-59.012h-44.196c-1.228 0-2.292.981-2.292 2.289v160.282c0 1.226.982 2.289 2.292 2.289h30.609a2.286 2.286 0 0 0 2.292-2.289v-61.792c0-1.226.982-2.288 2.292-2.288h9.003c25.944 0 38.63-13.568 38.63-36.7V38.335c0-22.968-12.604-36.454-38.63-36.454M710.077 135.19h-25.781a2.286 2.286 0 0 1-2.291-2.289V4.087a2.286 2.286 0 0 0-2.292-2.289h-30.2c-1.228 0-2.292.981-2.292 2.289v160.282c0 1.226.982 2.289 2.292 2.289h60.482a2.286 2.286 0 0 0 2.292-2.289v-26.891a2.286 2.286 0 0 0-2.292-2.288M781.527 1.798h-61.629c-1.227 0-2.291.981-2.291 2.289v160.282c0 1.226.982 2.289 2.291 2.289h61.629a2.286 2.286 0 0 0 2.291-2.289v-26.891a2.285 2.285 0 0 0-2.291-2.288H754.6a2.286 2.286 0 0 1-2.291-2.289V99.553c0-1.226.982-2.288 2.291-2.288h23.08c1.228 0 2.292-.981 2.292-2.289v-26.89a2.286 2.286 0 0 0-2.292-2.29H754.6a2.286 2.286 0 0 1-2.291-2.288V35.391c0-1.226.982-2.288 2.291-2.288h26.927c1.228 0 2.291-.981 2.291-2.289V4.087a2.286 2.286 0 0 0-2.291-2.289ZM854.122 79.201l-26.926-19.044c-3.683-2.779-5.32-5.476-5.32-11.28v-9.89c0-5.72 2.046-9.399 6.875-9.399 4.829 0 6.629 3.678 6.629 9.4v18.88c0 1.226.982 2.289 2.292 2.289h29.709c1.228 0 2.292-.98 2.292-2.289v-19.78C869.673 14.877 854.695 0 828.751 0c-25.945 0-42.314 14.957-42.314 38.089v17.654c0 14.467 4.829 22.477 15.878 29.834l26.927 19.289c3.683 2.779 5.32 5.313 5.32 11.279v13.323c0 5.722-2.046 9.4-6.63 9.4-4.583 0-6.875-3.678-6.875-9.4v-21.823a2.286 2.286 0 0 0-2.291-2.289h-29.955a2.286 2.286 0 0 0-2.292 2.289v22.722c0 23.213 14.978 38.089 40.922 38.089 25.945 0 42.559-14.958 42.559-38.089v-21.332c0-14.468-4.829-22.478-15.878-29.834ZM10.803 257.302c.164 3.188.9 5.721 2.21 7.765 2.456 3.678 6.711 5.558 12.85 5.558 6.138 0 5.238-.409 7.53-1.226 4.337-1.553 6.547-4.414 6.547-8.501s-.9-5.231-2.783-6.539c-1.882-1.307-4.829-2.37-8.839-3.351l-7.366-1.716c-4.829-1.144-8.184-2.37-10.23-3.678-3.438-2.371-5.157-5.803-5.157-10.462s1.72-9.155 5.075-12.424c3.355-3.188 8.184-4.822 14.404-4.822 6.22 0 10.558 1.389 14.568 4.25 4.01 2.861 5.975 7.356 5.975 13.568h-7.12c-.328-3.024-1.146-5.313-2.374-6.866-2.21-2.942-5.975-4.414-11.294-4.414-5.32 0-7.366.899-9.249 2.861-1.882 1.962-2.782 4.087-2.782 6.539s1.146 4.741 3.355 6.048c1.473.818 4.747 1.798 9.903 3.024l7.612 1.799c3.683.899 6.547 2.043 8.512 3.514 3.437 2.616 5.156 6.457 5.156 11.361 0 4.905-2.21 10.626-6.63 13.323-4.42 2.698-9.494 4.005-15.386 4.005-5.893 0-12.113-1.798-15.96-5.313-3.846-3.514-5.729-8.336-5.647-14.385h7.12v.082ZM80.616 219.377h40.677v6.866h-33.31v17h30.772v6.458H87.982v18.962h33.883v6.702H80.616v-55.988ZM193.561 223.464c3.846 3.759 6.056 8.01 6.465 12.75h-7.447c-.819-3.596-2.456-6.457-4.911-8.582-2.455-2.125-5.893-3.188-10.394-3.188-4.502 0-9.822 1.962-13.177 5.804-3.356 3.841-4.993 9.808-4.993 17.818 0 8.01 1.474 11.851 4.502 15.938 3.028 4.087 7.529 6.13 13.504 6.13s9.658-2.125 12.604-6.457c1.555-2.288 2.701-5.231 3.437-8.909h7.448c-.654 5.885-2.782 10.871-6.465 14.794-4.42 4.822-10.313 7.193-17.842 7.193-7.53 0-11.868-1.962-16.205-5.885-5.73-5.231-8.676-13.241-8.676-24.194 0-10.952 2.128-15.039 6.466-20.352 4.665-5.721 11.131-8.582 19.397-8.582 8.266 0 12.44 1.88 16.369 5.64l-.082.082ZM278.433 227.387c3.683 4.986 5.565 11.279 5.565 19.044 0 7.765-2.128 15.285-6.384 20.843-4.992 6.538-12.113 9.726-21.361 9.726-9.248 0-15.387-2.861-20.379-8.582-4.42-5.476-6.629-12.424-6.629-20.843 0-8.418 1.882-14.058 5.647-19.453 4.829-6.947 11.949-10.38 21.443-10.38 9.494 0 17.269 3.188 22.016 9.563l.082.082Zm-6.711 35.718c3.028-4.822 4.501-10.299 4.501-16.51 0-6.212-1.719-11.934-5.156-15.939-3.438-4.005-8.185-6.048-14.159-6.048-5.975 0-10.558 1.961-14.241 5.966-3.683 4.006-5.484 9.89-5.484 17.574 0 7.683 1.555 11.442 4.747 15.693 3.11 4.25 8.267 6.375 15.305 6.375 7.039 0 11.54-2.37 14.487-7.193v.082ZM314.935 219.377h8.921l27.991 45.281v-45.281h7.284v55.988h-8.512l-28.4-45.199v45.199h-7.284v-55.988ZM393.587 219.377h22.425c7.612 0 13.504 2.697 17.679 8.173 3.764 4.904 5.647 11.28 5.647 18.963 0 7.683-1.146 11.361-3.356 16.102-3.928 8.5-10.558 12.75-20.052 12.75h-22.343v-55.988Zm20.952 49.531c2.537 0 4.583-.245 6.22-.817 2.865-.981 5.238-2.861 7.121-5.722 1.473-2.288 2.537-5.149 3.192-8.663a31.05 31.05 0 0 0 .572-5.885c0-6.948-1.309-12.342-4.092-16.184-2.701-3.841-7.038-5.721-13.013-5.721h-13.177v42.992h13.259-.082ZM522 224.199l-3.356 4.577-3.355-4.577c-6.711-9.154-20.707-8.419-26.354 1.39-3.355 5.721-2.701 12.914 1.637 18.063L518.726 277l28.155-33.348c4.255-5.067 4.91-12.26 1.636-18.063-5.729-9.89-19.642-10.626-26.353-1.39H522ZM602.289 219.377h7.611v49.368h28.155v6.702h-35.766v-56.07ZM713.842 227.387c3.683 4.986 5.565 11.279 5.565 19.044 0 7.765-2.128 15.285-6.383 20.843-4.993 6.538-12.113 9.726-21.362 9.726-9.248 0-15.386-2.861-20.379-8.582-4.419-5.476-6.629-12.424-6.629-20.843 0-8.418 1.882-14.058 5.647-19.453 4.829-6.947 11.949-10.38 21.443-10.38 9.494 0 17.269 3.188 22.016 9.563l.082.082Zm-6.711 35.718c3.028-4.822 4.501-10.299 4.501-16.51 0-6.212-1.719-11.934-5.156-15.939-3.437-4.005-8.184-6.048-14.159-6.048-5.975 0-10.558 1.961-14.241 5.966-3.683 4.006-5.483 9.89-5.483 17.574 0 7.683 1.555 11.442 4.747 15.693 3.11 4.25 8.266 6.375 15.304 6.375 7.039 0 11.54-2.37 14.487-7.193v.082ZM754.764 219.377l16.123 47.733 15.96-47.733h8.511l-20.461 55.988h-8.02l-20.461-55.988h8.43-.082ZM825.068 219.377h40.676v6.866h-33.31v17h30.773v6.458h-30.773v18.962h33.883v6.702h-41.249v-55.988Z"/></svg>
